X:231
T:Gilbert Clancy's
T:Sean Reid's
T:The Peeler's Jacket
R:reel
M:4/4
L:1/8
K:G
|:DG~G2 dG~G2|cA~A2 dedA|DG~G2 ~B3d|cAdc AGGG|
  DG~G2 ~B3G|~c3A dcAd|~g3a gfde|1 fdcA AGGG:|2 fdcA AGBd|
|:d~g3 gfde|~f3e fdcA|dg~g2 gfde|fdcA A~G3|
  d~g3 gfde|~f3g afdf|~g2ga bgag|fdcA A~G3:|
